**kern	**kern	**dynam
*part1	*part1	*part1
*staff2	*staff1	*
*I"Piano	*	*
*clefF4	*clefG2	*
*k[b-e-a-d-]	*k[b-e-a-d-]	*
=1	=1	=1
*^	*^	*
(4B-	4.C)	4g	8fL]	.
.	.	.	8dn	[
8c)	.	8a-)	8enJ	.
=	=	=	=	=
4A-	[4.F	[4.f	4c	p <
8G	.	.	8Bn	.
=	=	=	=	=
4A-	4.F_	4.f_	4c	[ >
8G	.	.	8Bn	.
*v	*v	*	*	*
*	*v	*v	*
=	=	=
(4.F_ [4.A-	([4.c 4.f_	p
=	=	=
4.F] 4.A-]	4.c] 4.f]	] <
=	=	=
4.E- 4.B-	4.d- 4.g	[
=	=	=
[4A- [4c	[4e- [4a-	>
16A-]) 16c]	16e-]) 16a-]	.
16r	16r	.
=	=	=
*-	*-	*-
!!!system-decoration: {(s1,s2)}
